X:1
T:Save One
T:Save One
T:William James Kirkpatrick
T:Eliza Edmunds Hewitt, 1892
T:Public Domain Courtesy of the Cyber Hymnal™
C:William James Kirkpatrick
Z:Public Domain
Z:Courtesy of the Cyber Hymnal™
%%score 1 2
L:1/8
Q:1/4=95
M:6/8
K:F
V:1 treble 
V:2 bass 
V:1
 [FA][FA][FA] [FA][CG][CF] | [FA][Ac][Gc] [Fc]3 | [FA]3 [CF]2 z | [EG]3 [CF]2 z | %4
w: 1.~Out in the break- ers are|per- ish- ing souls,|Save one,|save one;|
w: 2.~Out in the dark- ness of|sin’s aw- ful night,|Save one,|save one;|
w: 3.~Out on the mount- ain so|sad- ly a- stray,|Save one,|save one;|
w: 4.~Loved ones or stran- gers, who-|e’er they may be,|Save one,|save one;|
 [FA][FA][FA] [FA][CG][CF] | [FA][Ac][Gc] [Fc]3 | [FA]3 [CF]2 z | [EG]3 [CF]2 z || %8
w: Out where the cur- rent of|sin mad- ly rolls,|Save one,|save one.|
w: Tell them of Je- sus, and|lead to the light,|Save one,|save one.|
w: From the sweet home land so|far, far a- way,|Save one,|save one.|
w: Go in His Spir- it who|saves you and me,|Save one,|save one.|
"^Refrain" [EG][EG][EG] [EG][CF][EG] | [FA][FA][FA] [Ac]3 | [FA][FA][FA] [FA][CG][CF] | %11
w: |||
w: |||
w: |||
w: |||
 [FA][Ac]>[FA] [EG]3 | [FA][FA][FA] [FA][EG][_EF] | [DF][DB][DB] [Fd]3 | !>![Fc]3 [FA]2 z | %15
w: ||||
w: ||||
w: ||||
w: ||||
 !>![EG]3 [CF]2 z |] %16
w: |
w: |
w: |
w: |
V:2
 [F,C][F,C][F,C] [F,C][F,B,][F,A,] | [F,C][F,C][F,B,] [F,A,]3 | [F,C]3 [F,A,]2 z | %3
w: ~ ~ ~ ~ ~ ~|~ ~ ~ ~|~ ~|
 [C,B,]3 [F,A,]2 z | [F,C][F,C][F,C] [F,C][F,B,][F,A,] | [F,C][F,C][F,B,] [F,A,]3 | %6
w: ~ ~|~ ~ ~ ~ ~ ~|~ ~ ~ ~|
 [F,C]3 [F,A,]2 z | [C,B,]3 [F,A,]2 z || [C,C][C,C][C,C] [C,C][C,A,][C,C] | %9
w: ~ ~|~ ~|Pi- ty the per- ish- ing,|
 [F,C][F,C][F,C] [F,F]3 | [F,C][F,C][F,C] [F,C][F,B,][F,A,] | [F,C][F,C]>[F,C] [C,C]3 | %12
w: la- bor and pray;|Has- ten to res- cue them,|save one to- day;|
 [F,C][F,C][F,C] [F,C][F,B,][F,A,] | [B,,B,][B,,B,][B,,B,] [B,,B,]3 | !>![C,A,]3 [C,C]2 z | %15
w: Then in your heart will be|Hea- ven be- gun,|Save one,|
 !>![C,B,]3 [F,A,]2 z |] %16
w: save one.|

